X: 1
T:Gan Ainm
R:Reel
S:Paddy Cronin, Kerry (fiddle)
D:From RTE 'The Pure Drop'
N:As played
M:4/4
Z:Bernie Stocks
K:G
d |: BE~E2 GBdB | AD(3FED FGAc | BE~E2 GBdd | {e}dBAc BE~E2 :|
e3f g-f{g}fe | defa {b}afdf | edef gf{g}fe | dBAc BE~E2 |
e3f g-f{g}fe | defa {b}afdf | g2ba gfed | (3BcdAc BE~E2 ||
